X:216
T: Dessous ces rosiers blancs (3), S. 34
N: T0104
O: Luxemburg
S: Singendes Volk, Esch-Alzette 1937 posth.]
N: ESCH/ALZETTE; gesungen von Frau Jules Meder 1922
R: "erzhlende Lieder"]
M: 3/4
L: 1/8
K: D
DDD | DFA3A | BA^GAFE | D2z
DDD | DFA3A | BA^GAFE | D2z2
AG | F3Add | c2z2
GF | E3EBB | AAz2
FE | DFAFEE | d2AFGE | D2z

@@@ Tune index: 8270
